public/library/reown-text-dark.svg

<svg width="180" height="48" viewBox="0 0 180 48" fill="none" xmlns="http://www.w3.org/2000/svg">
<path d="M28 14C28 6.26801 34.268 0 42 0H62C69.732 0 76 6.26801 76 14V34C76 41.732 69.732 48 62 48H42C34.268 48 28 41.732 28 34V14Z" fill="white"/>
<path fill-rule="evenodd" clip-rule="evenodd" d="M53.7228 13.8398L46.5869 33.1598H48.9885L56.1244 13.8398H53.7228Z" fill="#202020"/>
<path d="M0 13C0 5.8203 5.8203 0 13 0C20.1797 0 26 5.8203 26 13V35C26 42.1797 20.1797 48 13 48C5.8203 48 0 42.1797 0 35V13Z" fill="white"/>
<path fill-rule="evenodd" clip-rule="evenodd" d="M11.5898 27.3394V30.1594H14.4098V27.3394H11.5898Z" fill="#202020"/>
<path d="M78 24C78 10.7452 88.0551 0 100.459 0H157.541C169.945 0 180 10.7452 180 24C180 37.2548 169.945 48 157.541 48H100.459C88.0551 48 78 37.2548 78 24Z" fill="white"/>
<path d="M150.065 18.5062H147.827V29.8742H150.065V23.3322C150.065 21.4465 151.415 20.1282 153.071 20.1282C153.844 20.1282 154.481 20.3712 154.925 20.8332C155.37 21.2958 155.637 21.9944 155.637 22.9362V29.8742H157.853V22.8262C157.853 21.326 157.427 20.1713 156.678 19.3908C155.929 18.6099 154.872 18.2202 153.643 18.2202C152.193 18.2202 150.857 18.8136 150.065 19.854V18.5062Z" fill="#202020"/>
<path d="M133.482 18.5062L135.579 29.8742H137.997L139.787 24.4215L141.556 29.8742H143.975L146.072 18.5062H143.937L142.538 27.1302L140.792 21.6302H138.762L136.996 27.1921L135.618 18.5062H133.482Z" fill="#202020"/>
<path fill-rule="evenodd" clip-rule="evenodd" d="M111.684 24.8362H119.87L119.878 24.7039C120.011 22.2941 119.468 20.6673 118.518 19.6428C117.567 18.6182 116.232 18.2202 114.832 18.2202C113.165 18.2202 111.801 18.8632 110.855 19.9369C109.91 21.0088 109.39 22.501 109.39 24.1902C109.39 25.8902 109.91 27.3826 110.855 28.4519C111.801 29.523 113.166 30.1602 114.832 30.1602C117.557 30.1602 119.358 28.4217 119.678 26.5012L119.705 26.3382H117.502L117.471 26.4356C117.158 27.4157 116.241 28.2742 114.832 28.2742C113.772 28.2742 113.027 27.874 112.525 27.2358C112.043 26.624 111.775 25.7823 111.684 24.8362ZM117.694 23.0822H111.74C111.882 22.2633 112.18 21.5389 112.656 21.0115C113.159 20.4537 113.869 20.1062 114.832 20.1062C115.718 20.1062 116.392 20.3562 116.864 20.857C117.318 21.3376 117.603 22.0672 117.694 23.0822Z" fill="#202020"/>
<path fill-rule="evenodd" clip-rule="evenodd" d="M100.15 18.5062V29.8742H102.432V23.8822C102.432 22.7972 102.738 21.9936 103.241 21.4622C103.743 20.9314 104.457 20.6562 105.306 20.6562H108.262V18.5062H105.46C104.301 18.5062 103.179 19.031 102.432 20.0446V18.5062H100.15Z" fill="#202020"/>
<path fill-rule="evenodd" clip-rule="evenodd" d="M121.617 24.1902C121.617 25.8783 122.12 27.3708 123.063 28.4434C124.007 29.518 125.383 30.1602 127.103 30.1602C128.823 30.1602 130.199 29.518 131.143 28.4434C132.086 27.3708 132.589 25.8783 132.589 24.1902C132.589 22.513 132.086 21.0206 131.144 19.9454C130.2 18.8682 128.824 18.2202 127.103 18.2202C125.382 18.2202 124.006 18.8682 123.062 19.9454C122.12 21.0206 121.617 22.513 121.617 24.1902ZM130.307 24.1682C130.307 25.2294 130.079 26.2546 129.567 27.0101C129.059 27.7586 128.266 28.2522 127.103 28.2522C125.94 28.2522 125.147 27.7586 124.639 27.0101C124.127 26.2546 123.899 25.2294 123.899 24.1682C123.899 23.1183 124.127 22.1043 124.639 21.3571C125.146 20.6169 125.939 20.1282 127.103 20.1282C128.267 20.1282 129.06 20.6169 129.567 21.3571C130.079 22.1043 130.307 23.1183 130.307 24.1682Z" fill="#202020"/>
</svg>

<svg xmlns="http://www.w3.org/2000/svg" width="180" height="48" fill="none" viewBox="0 0 180 48"><path fill="#fff" d="M28 14c0-7.732 6.268-14 14-14h20c7.732 0 14 6.268 14 14v20c0 7.732-6.268 14-14 14H42c-7.732 0-14-6.268-14-14z"/><path fill="#202020" fill-rule="evenodd" d="m53.723 13.84-7.136 19.32h2.401l7.136-19.32z" clip-rule="evenodd"/><path fill="#fff" d="M0 13C0 5.82 5.82 0 13 0s13 5.82 13 13v22c0 7.18-5.82 13-13 13S0 42.18 0 35z"/><path fill="#202020" fill-rule="evenodd" d="M11.59 27.34v2.82h2.82v-2.82z" clip-rule="evenodd"/><path fill="#fff" d="M78 24c0-13.255 10.055-24 22.459-24h57.082C169.945 0 180 10.745 180 24s-10.055 24-22.459 24h-57.082C88.055 48 78 37.255 78 24"/><path fill="#202020" d="M150.065 18.506h-2.238v11.368h2.238v-6.542c0-1.886 1.35-3.204 3.006-3.204.773 0 1.41.243 1.854.705.445.463.712 1.161.712 2.103v6.938h2.216v-7.048c0-1.5-.426-2.655-1.175-3.435s-1.806-1.17-3.035-1.17c-1.45 0-2.786.593-3.578 1.633zM133.482 18.506l2.097 11.368h2.418l1.79-5.452 1.769 5.452h2.419l2.097-11.368h-2.135l-1.399 8.624-1.746-5.5h-2.03l-1.766 5.562-1.378-8.686z"/><path fill="#202020" fill-rule="evenodd" d="M111.684 24.836h8.186l.008-.132c.133-2.41-.41-4.037-1.36-5.061s-2.286-1.423-3.686-1.423c-1.667 0-3.031.643-3.977 1.717-.945 1.072-1.465 2.564-1.465 4.253 0 1.7.52 3.193 1.465 4.262.946 1.071 2.311 1.708 3.977 1.708 2.725 0 4.526-1.738 4.846-3.659l.027-.163h-2.203l-.031.098c-.313.98-1.23 1.838-2.639 1.838-1.06 0-1.805-.4-2.307-1.038-.482-.612-.75-1.454-.841-2.4m6.01-1.754h-5.954c.142-.819.44-1.543.916-2.07.503-.558 1.213-.906 2.176-.906.886 0 1.56.25 2.032.751.454.48.739 1.21.83 2.225M100.15 18.506v11.368h2.282v-5.992c0-1.085.306-1.888.809-2.42.502-.53 1.216-.806 2.065-.806h2.956v-2.15h-2.802a3.73 3.73 0 0 0-3.028 1.539v-1.539zM121.617 24.19c0 1.688.503 3.18 1.446 4.253.944 1.075 2.32 1.717 4.04 1.717s3.096-.642 4.04-1.717c.943-1.072 1.446-2.565 1.446-4.253 0-1.677-.503-3.17-1.445-4.245-.944-1.077-2.32-1.725-4.041-1.725s-3.097.648-4.041 1.725c-.942 1.076-1.445 2.568-1.445 4.245m8.69-.022c0 1.061-.228 2.087-.74 2.842-.508.749-1.301 1.242-2.464 1.242s-1.956-.493-2.464-1.242c-.512-.755-.74-1.78-.74-2.842 0-1.05.228-2.064.74-2.81.507-.741 1.3-1.23 2.464-1.23s1.957.489 2.464 1.23c.512.746.74 1.76.74 2.81" clip-rule="evenodd"/></svg>
